packages/core/src/svgs/ibat.svg

<svg width="24" height="24" viewBox="0 0 24 24" fill="none" xmlns="http://www.w3.org/2000/svg">
<g clip-path="url(#clip0_31_11667)">
<path d="M0 0H24V24H0V0Z" fill="url(#paint0_linear_31_11667)"/>
<path d="M10.0843 19.2514C10.7672 19.1494 11.4011 18.8362 11.8971 18.3557C12.3682 17.9343 12.72 17.3962 12.9171 16.7957C13.1485 16.1143 13.2085 15.6557 13.2085 14.43V13.4871H13.5043C14.2071 13.4871 15.3471 13.3586 15.9385 13.2129C16.3695 13.1355 16.7823 12.9786 17.1557 12.75C18.63 11.7943 19.1657 10.3929 18.6857 8.75143C18.6171 8.51143 18.5914 8.49428 18.5443 8.64857C18.4259 9.05047 18.271 9.44067 18.0814 9.81428C17.8542 10.2876 17.5336 10.7101 17.1388 11.0563C16.744 11.4025 16.2832 11.6652 15.7843 11.8286C15.1671 12.0343 14.7257 12.0986 13.6543 12.1371L13.1485 12.1586L13.1271 11.9871C13.1127 11.653 13.1113 11.3185 13.1228 10.9843C13.1357 10.2771 13.1485 10.0971 13.2043 9.85714C13.4357 8.84571 13.9243 8.22 14.6957 7.95428C14.8757 7.89428 14.9957 7.87714 15.3043 7.86857C15.5185 7.86 15.6814 7.83857 15.6643 7.82571C15.6043 7.76571 15.1628 7.70571 14.6657 7.68428C14.0835 7.63687 13.4982 7.72489 12.9557 7.94143C12.5614 8.08714 12.3343 8.23286 12.2357 8.40429C12.0353 8.79836 11.9007 9.22251 11.8371 9.66C11.7728 9.94286 11.7257 10.8643 11.7514 11.55L11.7728 12.1757L11.2243 12.1929C8.66997 12.2914 7.04569 12.99 6.43711 14.25C6.19855 14.7182 6.09469 15.2434 6.13711 15.7671C6.13711 16.1786 6.14569 16.4186 6.18426 16.6071C6.2614 17.01 6.42854 17.3786 6.68997 17.7643C6.84854 17.9914 7.1314 18.2914 7.1614 18.2614C7.0339 17.6458 6.99637 17.015 7.04997 16.3886C7.09283 16.1143 7.1914 15.7971 7.28997 15.5743C7.33283 15.4886 7.36711 15.4029 7.36711 15.39C7.36711 15.3129 7.76997 14.7986 7.99283 14.5929C8.58024 14.0747 9.308 13.7421 10.0843 13.6371C10.3885 13.5857 11.7814 13.4914 11.8114 13.5257C11.8543 13.56 11.8971 14.4386 11.88 14.8286C11.8585 15.3429 11.7385 16.0714 11.6357 16.3286C11.4728 16.7271 11.3143 16.9714 11.04 17.2371C10.8644 17.4231 10.6524 17.5708 10.4171 17.6711C10.1819 17.7713 9.92854 17.822 9.67283 17.82C9.31711 17.82 9.11569 17.7771 8.76426 17.6143C8.44528 17.4624 8.16638 17.2378 7.94997 16.9586L7.80426 16.7443C7.70997 16.6157 7.58569 16.23 7.55997 15.99L7.53426 15.7671L7.46997 15.8914C7.43569 15.9557 7.35426 16.14 7.29854 16.2986C7.19569 16.5771 7.1914 16.5943 7.19569 17.07C7.19569 17.55 7.19569 17.5543 7.3114 17.85C7.40284 18.1257 7.55283 18.3784 7.75108 18.5907C7.94933 18.803 8.19116 18.9699 8.45997 19.08C8.9914 19.2729 9.53569 19.3329 10.0843 19.2514ZM5.69997 16.4357C5.5714 15.3943 5.82854 14.3871 6.46283 13.4614C6.8914 12.8357 7.84711 12.1843 8.8114 11.8671C9.1414 11.7557 9.95569 11.5286 10.6071 11.3657L11.0057 11.2671L11.04 11.1129C11.3057 9.88714 11.5157 9.09857 11.67 8.78143L11.7557 8.56714C11.97 8.04 12.4757 7.37571 12.9428 7.00714C13.5468 6.54289 14.2515 6.22724 15 6.08571C15.3857 6.01714 15.9685 6 16.2985 6.03857C16.4528 6.05571 16.5857 6.06428 16.5943 6.05571C16.4692 5.91108 16.325 5.78419 16.1657 5.67857C15.7568 5.41029 15.2949 5.23341 14.8114 5.16C14.1828 5.10246 13.5498 5.20109 12.9685 5.44714C12.4285 5.68714 11.7943 6.17571 11.4 6.64714C10.9195 7.24793 10.5705 7.94293 10.3757 8.68714C10.32 8.89286 10.0028 10.2429 10.0028 10.2643C10.0028 10.3029 9.64711 10.4271 9.10283 10.5771C8.26517 10.7851 7.46037 11.1082 6.7114 11.5371C6.3773 11.7211 6.07132 11.952 5.80283 12.2229C5.3686 12.6237 5.03777 13.1236 4.83854 13.68L4.75283 13.98C4.70576 14.3313 4.70576 14.6873 4.75283 15.0386L4.83854 15.3557C4.89854 15.5957 5.14711 16.0971 5.30997 16.3243C5.43854 16.5043 5.70426 16.7829 5.72569 16.7614C5.73426 16.7571 5.72569 16.6071 5.69997 16.4314V16.4357ZM18.4414 8.26286C18.3985 8.01429 17.94 7.47857 17.4643 7.12714C16.8653 6.65399 16.1233 6.39858 15.36 6.40286C14.8618 6.39049 14.3683 6.50244 13.9243 6.72857C13.6543 6.85714 13.23 7.14429 13.0843 7.29429C12.9985 7.38 13.0071 7.38857 13.2428 7.34143C13.6928 7.25571 14.0228 7.22143 14.5285 7.20428C15.6985 7.16143 16.47 7.31143 17.3871 7.75286C17.7043 7.90714 18.3557 8.31 18.3557 8.34857C18.3557 8.36143 18.3814 8.37429 18.4071 8.37429C18.45 8.37429 18.4543 8.35286 18.4414 8.26286Z" fill="url(#paint1_linear_31_11667)"/>
<path d="M5.75131 15.0945C5.66092 15.5358 5.64355 15.989 5.69988 16.436C5.72131 16.6117 5.73416 16.7617 5.72559 16.766C5.70416 16.7874 5.43845 16.5088 5.30988 16.3288C5.11031 16.0284 4.95176 15.7026 4.83845 15.3602L4.75702 15.0731L4.74845 15.0431C4.7203 14.8732 4.70882 14.7009 4.71416 14.5288C5.10829 14.6105 5.46927 14.8074 5.75131 15.0945Z" fill="url(#paint2_linear_31_11667)"/>
<path d="M9.40295 13.3544C11.7515 13.0287 12.3944 13.1787 11.8672 14.0401C11.8662 13.8673 11.8476 13.6949 11.8115 13.5258C11.7815 13.4916 10.3887 13.5858 10.0844 13.6373C9.30812 13.7422 8.58036 14.0748 7.99295 14.593C7.74646 14.8266 7.53564 15.0952 7.36723 15.3901C7.36723 15.4073 7.33295 15.4887 7.29009 15.5744C7.23866 14.7901 7.59866 13.603 9.40295 13.3544ZM13.2087 14.0573V13.483H13.5044C14.2072 13.483 15.3472 13.3544 15.9387 13.213C16.3696 13.1357 16.7824 12.9787 17.1558 12.7501C17.7492 12.3878 18.2312 11.8687 18.5487 11.2501C18.3558 11.1644 17.9058 11.4987 17.4129 11.8716C17.0487 12.1458 16.6587 12.4416 16.3329 12.5916C15.8658 12.8058 15.0515 12.9473 14.3401 13.0716C13.6501 13.1916 13.0544 13.2944 12.9472 13.4316C12.8229 13.603 13.0115 13.8601 13.2044 14.0573H13.2087ZM12.9129 6.60013C13.2913 6.45408 13.6907 6.37014 14.0958 6.35156C13.6758 6.52299 13.2729 6.74585 12.9429 7.00728C12.6547 7.24503 12.3995 7.52033 12.1844 7.82585C12.1501 7.45728 12.2572 6.83156 12.9129 6.60013ZM10.4015 10.8087C10.7144 10.6458 10.9501 10.6801 11.1129 10.783L11.0401 11.113L11.0058 11.2673L10.6072 11.3658C9.9558 11.533 9.14152 11.7516 8.80723 11.8673C7.84723 12.1844 6.88723 12.8358 6.46295 13.4616C6.33438 13.6458 6.22295 13.8344 6.12866 14.0273C6.43723 13.2258 7.1358 12.3001 7.71438 12.0258C7.96295 11.9058 8.31438 11.7558 8.68723 11.5973C9.29152 11.3316 9.96438 11.0401 10.4015 10.8087ZM15.3301 6.90871C15.8187 6.93442 16.2858 7.19585 16.6072 7.44013C15.8516 7.20951 15.0574 7.13228 14.2715 7.21299C14.5244 7.04156 14.8887 6.89156 15.3258 6.91299L15.3301 6.90871ZM10.0844 19.2516C10.7673 19.1495 11.4012 18.8363 11.8972 18.3558C12.3642 17.9387 12.7143 17.4069 12.9129 16.813C12.5444 16.9073 12.3301 17.1858 12.0858 17.503C11.6829 18.0258 11.2029 18.6473 9.85295 18.7244C8.80295 18.7844 7.90723 18.2701 7.23866 17.653L7.31152 17.8501C7.40296 18.1258 7.55294 18.3785 7.7512 18.5908C7.94945 18.8031 8.19128 18.9701 8.46009 19.0801C8.99152 19.273 9.53581 19.333 10.0844 19.2516ZM6.18438 16.6073C6.16376 16.4954 6.15088 16.3823 6.1458 16.2687C6.33009 16.603 6.63438 17.0401 7.03723 17.4558C7.04491 17.7282 7.0852 17.9987 7.15723 18.2616C7.13152 18.2916 6.84866 17.9916 6.69009 17.7644C6.44245 17.4183 6.27017 17.0241 6.18438 16.6073Z" fill="#807E7F"/>
</g>
<defs>
<linearGradient id="paint0_linear_31_11667" x1="0" y1="12" x2="24" y2="12" gradientUnits="userSpaceOnUse">
<stop stop-color="#021D60"/>
<stop offset="0.51" stop-color="#2181CB"/>
<stop offset="1" stop-color="#061D6B"/>
</linearGradient>
<linearGradient id="paint1_linear_31_11667" x1="16.9885" y1="6.21857" x2="7.95854" y2="17.8843" gradientUnits="userSpaceOnUse">
<stop stop-color="#B5B0AB"/>
<stop offset="0.26" stop-color="#FAFFFF"/>
<stop offset="0.54" stop-color="#FFFEFF"/>
<stop offset="0.84" stop-color="#FFFEFA"/>
<stop offset="1" stop-color="white"/>
</linearGradient>
<linearGradient id="paint2_linear_31_11667" x1="5.23274" y1="16.3117" x2="5.72131" y2="12.8917" gradientUnits="userSpaceOnUse">
<stop stop-color="#887F76"/>
<stop offset="0.33" stop-color="white"/>
</linearGradient>
<clipPath id="clip0_31_11667">
<rect width="24" height="24" fill="white"/>
</clipPath>
</defs>
</svg>

<svg xmlns="http://www.w3.org/2000/svg" width="24" height="24" fill="none" viewBox="0 0 24 24"><g clip-path="url(#a)"><path fill="url(#b)" d="M0 0h24v24H0z"/><path fill="url(#c)" d="M10.084 19.251a3.3 3.3 0 0 0 1.813-.895c.471-.422.823-.96 1.02-1.56.232-.682.292-1.14.292-2.366v-.943h.295c.703 0 1.843-.128 2.435-.274a3.5 3.5 0 0 0 1.217-.463c1.474-.956 2.01-2.357 1.53-3.999-.069-.24-.095-.257-.142-.102a7 7 0 0 1-.463 1.165 3.9 3.9 0 0 1-2.297 2.015c-.617.205-1.058.27-2.13.308l-.505.022-.022-.172a13 13 0 0 1-.004-1.003c.013-.707.026-.887.081-1.127.232-1.011.72-1.637 1.492-1.903.18-.06.3-.077.608-.085.214-.009.377-.03.36-.043-.06-.06-.501-.12-.998-.142a3.8 3.8 0 0 0-1.71.257c-.395.146-.622.292-.72.463-.2.394-.335.819-.399 1.256-.064.283-.111 1.204-.086 1.89l.022.626-.549.017c-2.554.098-4.178.797-4.787 2.057a2.84 2.84 0 0 0-.3 1.517c0 .412.009.652.047.84.077.403.245.772.506 1.157.159.227.441.527.471.497a6.5 6.5 0 0 1-.111-1.872c.043-.275.141-.592.24-.815.043-.085.077-.171.077-.184 0-.077.403-.591.626-.797a3.97 3.97 0 0 1 2.091-.956c.305-.051 1.697-.146 1.727-.111.043.034.086.913.069 1.303-.022.514-.142 1.242-.244 1.5-.163.398-.322.642-.596.908a1.86 1.86 0 0 1-1.367.583c-.356 0-.557-.043-.909-.206a2.26 2.26 0 0 1-.814-.655l-.146-.215c-.094-.128-.218-.514-.244-.754l-.026-.223-.064.124a4 4 0 0 0-.171.408c-.103.278-.108.295-.103.771 0 .48 0 .484.115.78a2.01 2.01 0 0 0 1.149 1.23 3.3 3.3 0 0 0 1.624.171M5.7 16.436c-.129-1.042.129-2.049.763-2.975.428-.625 1.384-1.277 2.348-1.594.33-.111 1.145-.338 1.796-.501l.399-.099.034-.154c.266-1.226.476-2.014.63-2.332l.086-.214c.214-.527.72-1.191 1.187-1.56A4.86 4.86 0 0 1 15 6.086a5.4 5.4 0 0 1 1.299-.047c.154.017.287.025.295.017a2.1 2.1 0 0 0-.428-.377 3.4 3.4 0 0 0-1.355-.519 3.8 3.8 0 0 0-1.842.287c-.54.24-1.175.729-1.569 1.2-.48.6-.83 1.296-1.024 2.04a74 74 0 0 0-.373 1.577c0 .039-.356.163-.9.313a9.3 9.3 0 0 0-2.392.96c-.334.184-.64.415-.908.686-.434.4-.765.9-.964 1.457l-.086.3a4 4 0 0 0 0 1.059l.086.317c.06.24.308.741.471.968.129.18.394.459.416.437.008-.004 0-.154-.026-.33zm12.741-8.173c-.043-.249-.501-.784-.977-1.136a3.36 3.36 0 0 0-2.104-.724 3 3 0 0 0-1.436.326c-.27.128-.694.415-.84.565-.085.086-.077.095.159.047.45-.085.78-.12 1.285-.137 1.17-.043 1.942.107 2.86.549.316.154.968.557.968.596 0 .012.025.025.051.025.043 0 .047-.021.034-.111"/><path fill="url(#d)" d="M5.751 15.095c-.09.44-.107.894-.051 1.341.021.176.034.326.026.33-.022.021-.288-.257-.416-.437a4 4 0 0 1-.472-.969l-.081-.287-.009-.03a2.7 2.7 0 0 1-.034-.514c.394.082.755.278 1.037.566"/><path fill="#807E7F" d="M9.403 13.354c2.348-.325 2.991-.175 2.464.686a2.5 2.5 0 0 0-.056-.514c-.03-.034-1.422.06-1.727.111a3.96 3.96 0 0 0-2.091.956 3.5 3.5 0 0 0-.626.797 1 1 0 0 1-.077.184c-.051-.784.309-1.971 2.113-2.22m3.806.703v-.574h.295c.703 0 1.843-.129 2.435-.27.43-.077.843-.234 1.217-.463a3.8 3.8 0 0 0 1.393-1.5c-.193-.086-.643.249-1.136.622-.364.274-.754.57-1.08.72-.467.214-1.281.355-1.993.48-.69.12-1.286.222-1.393.36-.124.171.065.428.257.625zM12.913 6.6c.378-.146.778-.23 1.183-.248a4.8 4.8 0 0 0-1.153.655 4.2 4.2 0 0 0-.759.819c-.034-.369.073-.994.729-1.226m-2.511 4.209c.312-.163.548-.129.71-.026l-.072.33-.034.154-.399.099c-.651.167-1.465.386-1.8.501-.96.317-1.92.969-2.344 1.595q-.193.276-.334.565c.308-.801 1.007-1.727 1.585-2.001.249-.12.6-.27.973-.429.605-.265 1.277-.557 1.715-.788m4.928-3.9c.489.025.956.287 1.277.531a5.9 5.9 0 0 0-2.335-.227 1.73 1.73 0 0 1 1.054-.3zm-5.246 12.343a3.3 3.3 0 0 0 1.813-.896 3.6 3.6 0 0 0 1.016-1.543c-.369.094-.583.373-.827.69-.403.523-.883 1.144-2.233 1.221-1.05.06-1.946-.454-2.614-1.071l.073.197a2.01 2.01 0 0 0 1.148 1.23 3.3 3.3 0 0 0 1.624.172m-3.9-2.645a2.5 2.5 0 0 1-.038-.338c.184.334.488.771.891 1.187q.012.41.12.806c-.025.03-.308-.27-.467-.498a3 3 0 0 1-.506-1.157"/></g><defs><linearGradient id="b" x1="0" x2="24" y1="12" y2="12" gradientUnits="userSpaceOnUse"><stop stop-color="#021D60"/><stop offset=".51" stop-color="#2181CB"/><stop offset="1" stop-color="#061D6B"/></linearGradient><linearGradient id="c" x1="16.988" x2="7.959" y1="6.219" y2="17.884" gradientUnits="userSpaceOnUse"><stop stop-color="#B5B0AB"/><stop offset=".26" stop-color="#FAFFFF"/><stop offset=".54" stop-color="#FFFEFF"/><stop offset=".84" stop-color="#FFFEFA"/><stop offset="1" stop-color="#fff"/></linearGradient><linearGradient id="d" x1="5.233" x2="5.721" y1="16.312" y2="12.892" gradientUnits="userSpaceOnUse"><stop stop-color="#887F76"/><stop offset=".33" stop-color="#fff"/></linearGradient><clipPath id="a"><path fill="#fff" d="M0 0h24v24H0z"/></clipPath></defs></svg>
